X:37
T:Là-haut, sur la montagne. (I)
R:Chanson
O:France
B:Le livre des Chansons (Henri Davenson) n°37
Z:<anamnese@caramail.com> -- http://anamnese.fr.st
M:2/4
L:1/8
Q:1/4=100
K:G
D G B | d3 (d/c/) | (B/G/) G3 | d c/ B/ c/ (d/e/) |
d2 | (c(3dcB) (c/B/) (c/B/) | (G/B/)-B (G/A/) B/ A/ |
G D3 | d-(d/g/) f/ d/ | B (A/G/) B (3A/B/A/ |
(G/A/B)-B d/c/ | (B>d) B/ G/ (B/A/) | G(3ABE D2 |
d2-d/g/ f/ d/ | B (A/G/) B (3A/B/A/ | G4 ||


